icons/op-printer-16.svg

<svg width="16" height="16" viewBox="0 0 16 16" fill="none" xmlns="http://www.w3.org/2000/svg">
<path d="M13.6 5C14.928 5 16 6.072 16 7.4V11.2C16 11.7523 15.5523 12.2 15 12.2H13.8C13.2477 12.2 12.8 12.6477 12.8 13.2V14.4C12.8 14.9523 12.3523 15.4 11.8 15.4H4.2C3.64772 15.4 3.2 14.9523 3.2 14.4V13.2C3.2 12.6477 2.75228 12.2 2.2 12.2H1C0.447716 12.2 0 11.7523 0 11.2V7.4C0 6.072 1.072 5 2.4 5C2.84183 5 3.2 4.64183 3.2 4.2V2C3.2 1.44772 3.64772 1 4.2 1H11.8C12.3523 1 12.8 1.44772 12.8 2V4.2C12.8 4.64183 13.1582 5 13.6 5ZM5.8 2.6C5.24772 2.6 4.8 3.04772 4.8 3.6V4C4.8 4.55229 5.24772 5 5.8 5H10.2C10.7523 5 11.2 4.55228 11.2 4V3.6C11.2 3.04771 10.7523 2.6 10.2 2.6H5.8ZM10.2 13.8C10.7523 13.8 11.2 13.3523 11.2 12.8V11.6C11.2 11.0477 10.7523 10.6 10.2 10.6H5.8C5.24772 10.6 4.8 11.0477 4.8 11.6V12.8C4.8 13.3523 5.24772 13.8 5.8 13.8H10.2ZM12.8 9.8C12.8 10.2418 13.1582 10.6 13.6 10.6C14.0418 10.6 14.4 10.2418 14.4 9.8V7.4C14.4 6.96 14.04 6.6 13.6 6.6H2.4C1.96 6.6 1.6 6.96 1.6 7.4V9.8C1.6 10.2418 1.95817 10.6 2.4 10.6C2.84183 10.6 3.2 10.2418 3.2 9.8C3.2 9.35817 3.55817 9 4 9H12C12.4418 9 12.8 9.35817 12.8 9.8ZM13.6 7.8C13.6 8.24 13.24 8.6 12.8 8.6C12.36 8.6 12 8.24 12 7.8C12 7.36 12.36 7 12.8 7C13.24 7 13.6 7.36 13.6 7.8Z" fill="#1F2328"/>
</svg>

<svg xmlns="http://www.w3.org/2000/svg" width="16" height="16" viewBox="0 0 16 16"><path d="M13.6 5C14.928 5 16 6.072 16 7.4v3.8a1 1 0 0 1-1 1h-1.2a1 1 0 0 0-1 1v1.2a1 1 0 0 1-1 1H4.2a1 1 0 0 1-1-1v-1.2a1 1 0 0 0-1-1H1a1 1 0 0 1-1-1V7.4C0 6.072 1.072 5 2.4 5a.8.8 0 0 0 .8-.8V2a1 1 0 0 1 1-1h7.6a1 1 0 0 1 1 1v2.2a.8.8 0 0 0 .8.8ZM5.8 2.6a1 1 0 0 0-1 1V4a1 1 0 0 0 1 1h4.4a1 1 0 0 0 1-1v-.4a1 1 0 0 0-1-1H5.8Zm4.4 11.2a1 1 0 0 0 1-1v-1.2a1 1 0 0 0-1-1H5.8a1 1 0 0 0-1 1v1.2a1 1 0 0 0 1 1h4.4Zm2.6-4a.8.8 0 1 0 1.6 0V7.4c0-.44-.36-.8-.8-.8H2.4c-.44 0-.8.36-.8.8v2.4a.8.8 0 1 0 1.6 0A.8.8 0 0 1 4 9h8a.8.8 0 0 1 .8.8Zm.8-2c0 .44-.36.8-.8.8-.44 0-.8-.36-.8-.8 0-.44.36-.8.8-.8.44 0 .8.36.8.8Z"/></svg>
